svg/smoke_detector.svg

<svg xmlns="http://www.w3.org/2000/svg" viewBox="0 0 24 24"><path d="M12 18a6 6 0 0 0 6-6c0-3.32-2.69-6-6-6-3.32 0-6 2.68-6 6a6 6 0 0 0 6 6m7-15a2 2 0 0 1 2 2v14a2 2 0 0 1-2 2H5a2 2 0 0 1-2-2V5c0-1.11.89-2 2-2zM8 12a4 4 0 0 1 4-4 4 4 0 0 1 4 4 4 4 0 0 1-4 4 4 4 0 0 1-4-4"/></svg>

<?xml version="1.0" encoding="UTF-8"?><!DOCTYPE svg PUBLIC "-//W3C//DTD SVG 1.1//EN" "http://www.w3.org/Graphics/SVG/1.1/DTD/svg11.dtd"><svg xmlns="http://www.w3.org/2000/svg" xmlns:xlink="http://www.w3.org/1999/xlink" version="1.1" id="mdi-smoke-detector" width="24" height="24" viewBox="0 0 24 24"><path d="M12,18A6,6 0 0,0 18,12C18,8.68 15.31,6 12,6C8.68,6 6,8.68 6,12A6,6 0 0,0 12,18M19,3A2,2 0 0,1 21,5V19A2,2 0 0,1 19,21H5C3.89,21 3,20.1 3,19V5C3,3.89 3.89,3 5,3H19M8,12A4,4 0 0,1 12,8A4,4 0 0,1 16,12A4,4 0 0,1 12,16A4,4 0 0,1 8,12Z" /></svg>
